Costumes/Y-story-1.svg

<?xml version="1.0" encoding="utf-8"?>
<!-- Generator: Adobe Illustrator 18.0.0, SVG Export Plug-In . SVG Version: 6.00 Build 0)  -->
<!DOCTYPE svg PUBLIC "-//W3C//DTD SVG 1.1//EN" "http://www.w3.org/Graphics/SVG/1.1/DTD/svg11.dtd">
<svg version="1.1" id="Layer_2" xmlns="http://www.w3.org/2000/svg" xmlns:xlink="http://www.w3.org/1999/xlink" x="0px" y="0px"
	 viewBox="0 0 45.3 54.1" enable-background="new 0 0 45.3 54.1" xml:space="preserve">
<g>
	<path fill="#53AD4E" d="M45.3,1.2c0-0.6-0.2-0.9-0.9-0.9c-2,0-3.9-0.1-5.9-0.2c-2.7-0.1-5.3-0.1-7.9,0.5c-0.2,0-0.4,0.1-0.5,0.2
		c-1.3,1.6-2.7,3.3-3.8,5c-0.4,0.6-0.2,1.6,0,2.3c0.2,0.7,1,0.4,1.5,0.4h2.8c-2.3,4.1-4.4,8-6.7,12c-0.2-0.4-0.4-0.7-0.5-1
		c-2.6-4.7-5.1-9.4-7.7-14.1c-0.3-0.5-0.2-0.9,0.3-1.2c0.8-0.4,1.7-0.7,2.6-1c0.6-0.2,0.9-0.4,0.7-1.1c-0.1-0.3,0-0.7,0-1.1
		c0.1-0.5-0.1-0.6-0.5-0.6c-0.5,0-1,0.1-1.6,0.1C13,0.5,8.8,0.5,4.6,0.5c-0.2,0-0.4,0.1-0.5,0.2C3,1.9,1.9,3.1,0.8,4.2
		c-1,1-0.9,2.1-0.6,3.2c0,0.2,0.4,0.4,0.6,0.4C1.9,8,3.1,8.1,4.2,8.3c0.9,0.2,1.3,0.8,1.6,1.7c0.1,0.3,0.2,0.5,0.3,0.8
		c1.2,2.3,2.5,4.6,3.7,6.9c1.4,2.8,2.8,5.7,4.2,8.5c1,2,2.2,3.9,2.2,6.4c0,4.2,0.2,8.4,0.5,12.5c0.1,1.7-0.4,3-1.7,4.1
		c-1.2,1-2.5,2.2-1.9,4.1c0.2,0.6,0.2,1,1,0.6c0.2-0.1,0.5,0,0.7,0c4.3,0.1,8.5,0.1,12.8,0.2c0.3,0,0.6-0.1,0.8-0.3
		c1.1-1.2,2.2-2.5,3.3-3.8c0.6-0.6,0.7-1.1,0.6-1.9c-0.2-1.5-0.1-1.5-1.6-1.5c-1.2,0-1.9-0.5-2.1-1.7c-0.1-1,0-2,0-3
		c-0.1-5.2-0.3-10.4-0.4-15.6c0-0.3,0.1-0.7,0.3-1c1.1-2,2.3-3.9,3.4-5.9c2.2-4.1,4.3-8.2,6.6-12.3c0.5-0.9,1.3-1.7,2-2.5
		c1.1-1.2,2.5-1.4,4.1-1.2c0.7,0.1,0.9-0.1,0.9-0.8C45.3,2.3,45.3,1.7,45.3,1.2z M26.6,7c0.1-0.3,0.1-0.6,0.2-0.8
		c1-1.5,2.1-2.9,3.2-4.4c0.4,0.7,0.4,1.1-0.1,1.7c-1,1.2-2,2.5-3,3.7C26.8,7,26.7,7,26.6,7z M21.2,32.5c0.6,4.2-0.1,8.5-0.1,12.7
		c0,0.9-0.6,1.3-1.3,1.6c-0.4,0.2-0.9,0.2-1.3,0.2c-0.7,0-1-0.2-1-1c-0.2-5-0.4-9.9-0.5-14.9c0-0.4,0.2-0.9,0.5-1.1
		c1.2-0.8,2.4-1.5,3.8-2.3C21.2,29.4,21,31,21.2,32.5z M1,5.2c0.7-0.9,1.4-1.7,2.1-2.6c0.3-0.4,0.7-0.8,1-1.2c0.1,0,0.1,0,0.2,0
		c0,0.5,0.1,1.1-0.1,1.5C3.2,4.1,2,5.3,0.9,6.6C0.4,6,0.8,5.5,1,5.2z M15,26.3c-1.6-3.1-3.1-6.3-4.7-9.4c-1.1-2.1-2.2-4.2-3.4-6.2
		c-0.2-0.3-0.4-0.6-0.5-1C5.6,7.8,4.3,7.1,2.2,7.2c-0.2,0-0.5,0-0.9,0c1.2-1.3,2.3-2.5,3.4-3.6c0.6-0.6,2.4-0.3,3,0.5
		c0.9,1.1,1.7,2.3,2.4,3.5c2.3,4.1,4.5,8.2,6.7,12.2c1.2,2.1,2.4,4.3,3.6,6.4c0.3,0.5,0.2,0.8-0.3,1.1c-1.1,0.7-2.2,1.5-3.4,2.3
		C16.2,28.5,15.6,27.4,15,26.3z M13.7,52.7c-0.1-0.1-0.1-0.2-0.2-0.4c0.1-0.1,0.1-0.1,0.2-0.2c0-0.2,0-0.3,0.1-0.4
		c1.1-1.4,2.3-2.7,3.6-4.1c0.3,0.9-0.1,1.5-0.5,1.9c-1,0.9-2.1,1.7-3.1,2.6C13.7,52.4,13.8,52.6,13.7,52.7z M30.9,49.4
		c0,0.1,0,0.2,0.1,0.3c-0.9,1.2-1.8,2.3-2.7,3.5c-0.2,0.2-0.7,0.3-1,0.3c-3.6,0-7.2-0.1-10.8-0.1c-0.6,0-1.2,0-2,0
		c0.9-0.9,1.7-1.7,2.3-2.5c0.9-1.1,1.9-1.5,3.3-1.4C23.7,49.5,27.3,49.4,30.9,49.4z M35.3,6c-0.4,0.5-0.7,1.1-1.1,1.6
		c-1.5,2.4-3.1,4.8-4.5,7.2c-1.4,2.5-2.6,5-3.9,7.5c-0.1,0.2-0.2,0.3-0.3,0.5c-1.2-1.2-1.2-1.7-0.3-3.2c1.9-3.3,3.7-6.5,5.6-9.8
		c0.1-0.2,0.2-0.5,0.3-0.7c0.2-0.7-0.2-1.3-0.9-1.3c-0.7-0.1-1.5,0-2.2,0c-0.2,0-0.3,0-0.7-0.1c0.5-0.6,1-1.2,1.4-1.7
		c0.6-0.7,1.1-1.4,1.7-2c0.2-0.2,0.6-0.5,0.9-0.5c1.1,0.1,2.2,0.1,3.3,0.4C35.8,4.3,36.2,4.9,35.3,6z"/>
	<path fill="#FFFFFF" d="M4.2,2.8C3.2,4.1,2,5.3,0.9,6.6C0.4,6,0.8,5.5,1,5.2c0.7-0.9,1.4-1.7,2.1-2.6c0.3-0.4,0.7-0.8,1-1.2
		c0.1,0,0.1,0,0.2,0C4.3,1.9,4.5,2.5,4.2,2.8z"/>
	<path fill="#FFFFFF" d="M29.9,3.4c-1,1.2-2,2.5-3,3.7C26.8,7,26.7,7,26.6,7c0.1-0.3,0.1-0.6,0.2-0.8c1-1.5,2.1-2.9,3.2-4.4
		C30.4,2.4,30.4,2.8,29.9,3.4z"/>
	<path fill="#FFFFFF" d="M35.3,6c-0.4,0.5-0.7,1.1-1.1,1.6c-1.5,2.4-3.1,4.8-4.5,7.2c-1.4,2.5-2.6,5-3.9,7.5
		c-0.1,0.2-0.2,0.3-0.3,0.5c-1.2-1.2-1.2-1.7-0.3-3.2c1.9-3.3,3.7-6.5,5.6-9.8c0.1-0.2,0.2-0.5,0.3-0.7c0.2-0.7-0.2-1.3-0.9-1.3
		c-0.7-0.1-1.5,0-2.2,0c-0.2,0-0.3,0-0.7-0.1c0.5-0.6,1-1.2,1.4-1.7c0.6-0.7,1.1-1.4,1.7-2c0.2-0.2,0.6-0.5,0.9-0.5
		c1.1,0.1,2.2,0.1,3.3,0.4C35.8,4.3,36.2,4.9,35.3,6z"/>
	<path fill="#FFFFFF" d="M16.9,49.6c-1,0.9-2.1,1.7-3.1,2.6c0-0.2,0-0.3,0.1-0.4c1.1-1.4,2.3-2.7,3.6-4.1
		C17.7,48.7,17.3,49.2,16.9,49.6z"/>
	<path fill="#FFFFFF" d="M31,49.7c-0.9,1.2-1.8,2.3-2.7,3.5c-0.2,0.2-0.7,0.3-1,0.3c-3.6,0-7.2-0.1-10.8-0.1c-0.6,0-1.2,0-2,0
		c0.9-0.9,1.7-1.7,2.3-2.5c0.9-1.1,1.9-1.5,3.3-1.4c3.6,0.1,7.2,0,10.8,0C30.9,49.5,31,49.6,31,49.7z"/>
	<path fill="#FFFFFF" d="M21.1,45.2c0,0.9-0.6,1.3-1.3,1.6c-0.4,0.2-0.9,0.2-1.3,0.2c-0.7,0-1-0.2-1-1c-0.2-5-0.4-9.9-0.5-14.9
		c0-0.4,0.2-0.9,0.5-1.1c1.2-0.8,2.4-1.5,3.8-2.3c0,1.7-0.2,3.3,0,4.9C21.9,36.8,21.1,41,21.1,45.2z"/>
	<path fill="#FFFFFF" d="M20.2,27.4c-1.1,0.7-2.2,1.5-3.4,2.3c-0.6-1.1-1.2-2.2-1.8-3.3c-1.6-3.1-3.1-6.3-4.7-9.4
		c-1.1-2.1-2.2-4.2-3.4-6.2c-0.2-0.3-0.4-0.6-0.5-1C5.6,7.8,4.3,7.1,2.2,7.2c-0.2,0-0.5,0-0.9,0c1.2-1.3,2.3-2.5,3.4-3.6
		c0.6-0.6,2.4-0.3,3,0.5c0.9,1.1,1.7,2.3,2.4,3.5c2.3,4.1,4.5,8.2,6.7,12.2c1.2,2.1,2.4,4.3,3.6,6.4C20.8,26.8,20.7,27,20.2,27.4z"
		/>
</g>
</svg>

<?xml version="1.0" encoding="UTF-8" standalone="no"?>
<!-- Generator: Adobe Illustrator 18.0.0, SVG Export Plug-In . SVG Version: 6.00 Build 0)  -->

<svg
   version="1.1"
   id="Layer_2"
   x="0px"
   y="0px"
   viewBox="0 0 45.506421 54.049577"
   enable-background="new 0 0 45.3 54.1"
   xml:space="preserve"
   sodipodi:docname="Y-story-1.svg"
   width="45.50642"
   height="54.049576"
   xmlns:inkscape="http://www.inkscape.org/namespaces/inkscape"
   xmlns:sodipodi="http://sodipodi.sourceforge.net/DTD/sodipodi-0.dtd"
   xmlns="http://www.w3.org/2000/svg"
   xmlns:svg="http://www.w3.org/2000/svg"><defs
   id="defs23" /><sodipodi:namedview
   id="namedview21"
   pagecolor="#ffffff"
   bordercolor="#000000"
   borderopacity="0.25"
   inkscape:showpageshadow="2"
   inkscape:pageopacity="0.0"
   inkscape:pagecheckerboard="0"
   inkscape:deskcolor="#d1d1d1" />
<g
   id="g18"
   transform="translate(0.00642147,-0.05042449)">
	<path
   fill="#53ad4e"
   d="M 45.3,1.2 C 45.3,0.6 45.1,0.3 44.4,0.3 42.4,0.3 40.5,0.2 38.5,0.1 35.8,0 33.2,0 30.6,0.6 c -0.2,0 -0.4,0.1 -0.5,0.2 -1.3,1.6 -2.7,3.3 -3.8,5 -0.4,0.6 -0.2,1.6 0,2.3 0.2,0.7 1,0.4 1.5,0.4 h 2.8 c -2.3,4.1 -4.4,8 -6.7,12 -0.2,-0.4 -0.4,-0.7 -0.5,-1 C 20.8,14.8 18.3,10.1 15.7,5.4 15.4,4.9 15.5,4.5 16,4.2 16.8,3.8 17.7,3.5 18.6,3.2 19.2,3 19.5,2.8 19.3,2.1 19.2,1.8 19.3,1.4 19.3,1 19.4,0.5 19.2,0.4 18.8,0.4 c -0.5,0 -1,0.1 -1.6,0.1 -4.2,0 -8.4,0 -12.6,0 C 4.4,0.5 4.2,0.6 4.1,0.7 3,1.9 1.9,3.1 0.8,4.2 c -1,1 -0.9,2.1 -0.6,3.2 0,0.2 0.4,0.4 0.6,0.4 1.1,0.2 2.3,0.3 3.4,0.5 0.9,0.2 1.3,0.8 1.6,1.7 0.1,0.3 0.2,0.5 0.3,0.8 1.2,2.3 2.5,4.6 3.7,6.9 1.4,2.8 2.8,5.7 4.2,8.5 1,2 2.2,3.9 2.2,6.4 0,4.2 0.2,8.4 0.5,12.5 0.1,1.7 -0.4,3 -1.7,4.1 -1.2,1 -2.5,2.2 -1.9,4.1 0.2,0.6 0.2,1 1,0.6 0.2,-0.1 0.5,0 0.7,0 4.3,0.1 8.5,0.1 12.8,0.2 0.3,0 0.6,-0.1 0.8,-0.3 1.1,-1.2 2.2,-2.5 3.3,-3.8 0.6,-0.6 0.7,-1.1 0.6,-1.9 -0.2,-1.5 -0.1,-1.5 -1.6,-1.5 -1.2,0 -1.9,-0.5 -2.1,-1.7 -0.1,-1 0,-2 0,-3 -0.1,-5.2 -0.3,-10.4 -0.4,-15.6 0,-0.3 0.1,-0.7 0.3,-1 1.1,-2 2.3,-3.9 3.4,-5.9 2.2,-4.1 4.3,-8.2 6.6,-12.3 C 39,6.2 39.8,5.4 40.5,4.6 41.6,3.4 43,3.2 44.6,3.4 45.3,3.5 45.5,3.3 45.5,2.6 45.3,2.3 45.3,1.7 45.3,1.2 Z M 26.6,7 c 0.1,-0.3 0.1,-0.6 0.2,-0.8 1,-1.5 2.1,-2.9 3.2,-4.4 0.4,0.7 0.4,1.1 -0.1,1.7 -1,1.2 -2,2.5 -3,3.7 C 26.8,7 26.7,7 26.6,7 Z m -5.4,25.5 c 0.6,4.2 -0.1,8.5 -0.1,12.7 0,0.9 -0.6,1.3 -1.3,1.6 -0.4,0.2 -0.9,0.2 -1.3,0.2 -0.7,0 -1,-0.2 -1,-1 -0.2,-5 -0.4,-9.9 -0.5,-14.9 0,-0.4 0.2,-0.9 0.5,-1.1 1.2,-0.8 2.4,-1.5 3.8,-2.3 -0.1,1.7 -0.3,3.3 -0.1,4.8 z M 1,5.2 C 1.7,4.3 2.4,3.5 3.1,2.6 3.4,2.2 3.8,1.8 4.1,1.4 c 0.1,0 0.1,0 0.2,0 0,0.5 0.1,1.1 -0.1,1.5 C 3.2,4.1 2,5.3 0.9,6.6 0.4,6 0.8,5.5 1,5.2 Z M 15,26.3 C 13.4,23.2 11.9,20 10.3,16.9 9.2,14.8 8.1,12.7 6.9,10.7 6.7,10.4 6.5,10.1 6.4,9.7 5.6,7.8 4.3,7.1 2.2,7.2 2,7.2 1.7,7.2 1.3,7.2 2.5,5.9 3.6,4.7 4.7,3.6 5.3,3 7.1,3.3 7.7,4.1 c 0.9,1.1 1.7,2.3 2.4,3.5 2.3,4.1 4.5,8.2 6.7,12.2 1.2,2.1 2.4,4.3 3.6,6.4 0.3,0.5 0.2,0.8 -0.3,1.1 C 19,28 17.9,28.8 16.7,29.6 16.2,28.5 15.6,27.4 15,26.3 Z m -1.3,26.4 c -0.1,-0.1 -0.1,-0.2 -0.2,-0.4 0.1,-0.1 0.1,-0.1 0.2,-0.2 0,-0.2 0,-0.3 0.1,-0.4 1.1,-1.4 2.3,-2.7 3.6,-4.1 0.3,0.9 -0.1,1.5 -0.5,1.9 -1,0.9 -2.1,1.7 -3.1,2.6 -0.1,0.3 0,0.5 -0.1,0.6 z m 17.2,-3.3 c 0,0.1 0,0.2 0.1,0.3 -0.9,1.2 -1.8,2.3 -2.7,3.5 -0.2,0.2 -0.7,0.3 -1,0.3 -3.6,0 -7.2,-0.1 -10.8,-0.1 -0.6,0 -1.2,0 -2,0 0.9,-0.9 1.7,-1.7 2.3,-2.5 0.9,-1.1 1.9,-1.5 3.3,-1.4 3.6,0 7.2,-0.1 10.8,-0.1 z M 35.3,6 c -0.4,0.5 -0.7,1.1 -1.1,1.6 -1.5,2.4 -3.1,4.8 -4.5,7.2 -1.4,2.5 -2.6,5 -3.9,7.5 -0.1,0.2 -0.2,0.3 -0.3,0.5 -1.2,-1.2 -1.2,-1.7 -0.3,-3.2 1.9,-3.3 3.7,-6.5 5.6,-9.8 0.1,-0.2 0.2,-0.5 0.3,-0.7 0.2,-0.7 -0.2,-1.3 -0.9,-1.3 -0.7,-0.1 -1.5,0 -2.2,0 -0.2,0 -0.3,0 -0.7,-0.1 0.5,-0.6 1,-1.2 1.4,-1.7 0.6,-0.7 1.1,-1.4 1.7,-2 0.2,-0.2 0.6,-0.5 0.9,-0.5 1.1,0.1 2.2,0.1 3.3,0.4 1.2,0.4 1.6,1 0.7,2.1 z"
   id="path2" />
	<path
   fill="#ffffff"
   d="M 4.2,2.8 C 3.2,4.1 2,5.3 0.9,6.6 0.4,6 0.8,5.5 1,5.2 1.7,4.3 2.4,3.5 3.1,2.6 3.4,2.2 3.8,1.8 4.1,1.4 c 0.1,0 0.1,0 0.2,0 0,0.5 0.2,1.1 -0.1,1.4 z"
   id="path4" />
	<path
   fill="#ffffff"
   d="m 29.9,3.4 c -1,1.2 -2,2.5 -3,3.7 C 26.8,7 26.7,7 26.6,7 c 0.1,-0.3 0.1,-0.6 0.2,-0.8 1,-1.5 2.1,-2.9 3.2,-4.4 0.4,0.6 0.4,1 -0.1,1.6 z"
   id="path6" />
	<path
   fill="#ffffff"
   d="m 35.3,6 c -0.4,0.5 -0.7,1.1 -1.1,1.6 -1.5,2.4 -3.1,4.8 -4.5,7.2 -1.4,2.5 -2.6,5 -3.9,7.5 -0.1,0.2 -0.2,0.3 -0.3,0.5 -1.2,-1.2 -1.2,-1.7 -0.3,-3.2 1.9,-3.3 3.7,-6.5 5.6,-9.8 0.1,-0.2 0.2,-0.5 0.3,-0.7 0.2,-0.7 -0.2,-1.3 -0.9,-1.3 -0.7,-0.1 -1.5,0 -2.2,0 -0.2,0 -0.3,0 -0.7,-0.1 0.5,-0.6 1,-1.2 1.4,-1.7 0.6,-0.7 1.1,-1.4 1.7,-2 0.2,-0.2 0.6,-0.5 0.9,-0.5 1.1,0.1 2.2,0.1 3.3,0.4 1.2,0.4 1.6,1 0.7,2.1 z"
   id="path8" />
	<path
   fill="#ffffff"
   d="m 16.9,49.6 c -1,0.9 -2.1,1.7 -3.1,2.6 0,-0.2 0,-0.3 0.1,-0.4 1.1,-1.4 2.3,-2.7 3.6,-4.1 0.2,1 -0.2,1.5 -0.6,1.9 z"
   id="path10" />
	<path
   fill="#ffffff"
   d="m 31,49.7 c -0.9,1.2 -1.8,2.3 -2.7,3.5 -0.2,0.2 -0.7,0.3 -1,0.3 -3.6,0 -7.2,-0.1 -10.8,-0.1 -0.6,0 -1.2,0 -2,0 0.9,-0.9 1.7,-1.7 2.3,-2.5 0.9,-1.1 1.9,-1.5 3.3,-1.4 3.6,0.1 7.2,0 10.8,0 0,0 0.1,0.1 0.1,0.2 z"
   id="path12" />
	<path
   fill="#ffffff"
   d="m 21.1,45.2 c 0,0.9 -0.6,1.3 -1.3,1.6 -0.4,0.2 -0.9,0.2 -1.3,0.2 -0.7,0 -1,-0.2 -1,-1 -0.2,-5 -0.4,-9.9 -0.5,-14.9 0,-0.4 0.2,-0.9 0.5,-1.1 1.2,-0.8 2.4,-1.5 3.8,-2.3 0,1.7 -0.2,3.3 0,4.9 0.6,4.2 -0.2,8.4 -0.2,12.6 z"
   id="path14" />
	<path
   fill="#ffffff"
   d="M 20.2,27.4 C 19.1,28.1 18,28.9 16.8,29.7 16.2,28.6 15.6,27.5 15,26.4 13.4,23.3 11.9,20.1 10.3,17 9.2,14.9 8.1,12.8 6.9,10.8 6.7,10.5 6.5,10.2 6.4,9.8 5.6,7.8 4.3,7.1 2.2,7.2 2,7.2 1.7,7.2 1.3,7.2 2.5,5.9 3.6,4.7 4.7,3.6 5.3,3 7.1,3.3 7.7,4.1 c 0.9,1.1 1.7,2.3 2.4,3.5 2.3,4.1 4.5,8.2 6.7,12.2 1.2,2.1 2.4,4.3 3.6,6.4 0.4,0.6 0.3,0.8 -0.2,1.2 z"
   id="path16" />
</g>
</svg>
